germany/districts/8417.svg

<?xml version="1.0" encoding="UTF-8" standalone="no"?>
<!-- Created with Inkscape (http://www.inkscape.org/) -->
<svg
   xmlns:dc="http://purl.org/dc/elements/1.1/"
   xmlns:cc="http://creativecommons.org/ns#"
   xmlns:rdf="http://www.w3.org/1999/02/22-rdf-syntax-ns#"
   xmlns:svg="http://www.w3.org/2000/svg"
   xmlns="http://www.w3.org/2000/svg"
   xmlns:sodipodi="http://sodipodi.sourceforge.net/DTD/sodipodi-0.dtd"
   xmlns:inkscape="http://www.inkscape.org/namespaces/inkscape"
   width="190"
   height="200"
   id="svg2"
   sodipodi:version="0.32"
   inkscape:version="0.46"
   version="1.0"
   sodipodi:docname="Wappen_Zollernalbkreis.svg"
   inkscape:output_extension="org.inkscape.output.svg.inkscape">
  <defs
     id="defs4" />
  <sodipodi:namedview
     id="base"
     pagecolor="#ffffff"
     bordercolor="#666666"
     borderopacity="1.0"
     inkscape:pageopacity="0.0"
     inkscape:pageshadow="2"
     inkscape:zoom="1.4"
     inkscape:cx="-35.593255"
     inkscape:cy="94.798896"
     inkscape:document-units="px"
     inkscape:current-layer="layer1"
     showgrid="false"
     inkscape:window-width="1280"
     inkscape:window-height="750"
     inkscape:window-x="-8"
     inkscape:window-y="-8" />
  <metadata
     id="metadata7">
    <rdf:RDF>
      <cc:Work
         rdf:about="">
        <dc:format>image/svg+xml</dc:format>
        <dc:type
           rdf:resource="http://purl.org/dc/dcmitype/StillImage" />
      </cc:Work>
    </rdf:RDF>
  </metadata>
  <g
     inkscape:label="Ebene 1"
     inkscape:groupmode="layer"
     id="layer1">
    <path
       sodipodi:nodetypes="ccszsc"
       id="path3156"
       d="M 3.9187292,3.9804763 L 186.08127,3.9804763 L 182.08668,96.713023 C 178.7769,173.54815 134.69793,196.01952 95.000001,196.01952 C 55.302942,196.01952 10.022584,169.59768 7.3379288,96.754355 L 3.9187292,3.9804763 z"
       style="fill:#ffda00;fill-opacity:1;fill-rule:evenodd;stroke:none;stroke-width:4;stroke-linecap:butt;stroke-linejoin:miter;stroke-miterlimit:4;stroke-dasharray:none;stroke-opacity:1" />
    <g
       id="g1372"
       transform="matrix(0.2227002,0,0,0.2227002,-117.9095,-5.5468582)">
      <g
         style="fill-rule:evenodd"
         id="g2190"
         transform="matrix(3.248992,0,0,3.19535,-708.5078,-52.19496)">
        <g
           id="Layer_x0020_1"
           transform="translate(-57.86415,0)">
          <metadata
             id="CorelCorpID_0Corel-Layer" />
        </g>
      </g>
    </g>
    <path
       style="fill:#ffffff;fill-rule:evenodd;stroke:none;stroke-width:1px;stroke-linecap:butt;stroke-linejoin:miter;stroke-opacity:1;fill-opacity:1"
       d="M 3.7708799,4.1625241 L 95.47965,4.1625241 L 95.47965,195.25217 C 50.826374,197.50859 10.697713,157.50973 7.254318,93.530868 L 3.7708799,4.1625241 z"
       id="path3179"
       sodipodi:nodetypes="ccccc" />
    <path
       style="fill:none;fill-rule:evenodd;stroke:#000000;stroke-width:4;stroke-linecap:butt;stroke-linejoin:miter;stroke-miterlimit:4;stroke-dasharray:none;stroke-opacity:1"
       d="M 95,4.4312451 L 95,194.5087"
       id="path3169" />
    <path
       style="fill:#000000;fill-rule:evenodd;stroke:none;stroke-width:1px;stroke-linecap:butt;stroke-linejoin:miter;stroke-opacity:0.68235296000000001;fill-opacity:1"
       d="M 8.943421,95.317767 L 51.707743,95.317767 L 51.707743,183.3306 C 15.366465,162.93823 9.2595066,115.21158 8.943421,95.317767 z"
       id="path3175"
       sodipodi:nodetypes="cccc" />
    <rect
       style="opacity:1;fill:#000000;fill-opacity:1;fill-rule:nonzero;stroke:none;stroke-width:3;stroke-linecap:round;stroke-linejoin:miter;stroke-miterlimit:4;stroke-dasharray:none;stroke-opacity:0.68235294"
       id="rect3177"
       width="43.198185"
       height="90.92421"
       x="51.707745"
       y="4.3935575" />
    <path
       style="fill:#000000;fill-opacity:1;fill-rule:evenodd;stroke:none;stroke-width:1px;stroke-linecap:butt;stroke-linejoin:miter;stroke-opacity:1"
       d="M 110.19445,93.517416 C 114.19597,81.993514 123.1438,77.088404 126.26276,79.532707 C 127.69922,80.658451 118.1192,85.790501 118.20999,91.874193 C 118.20999,91.874193 124.4505,91.734867 126.04858,90.122032 C 130.73443,85.39294 133.00818,76.833222 143.39458,78.37261 C 145.86224,78.738345 134.69674,82.705762 133.43569,89.972117 C 133.43569,89.972117 139.98169,91.317412 141.58345,89.775245 C 146.14153,85.386724 150.6194,79.457796 157.05295,80.377648 C 161.63216,81.032369 149.6444,84.349765 147.76413,91.559835 C 151.40489,92.728425 153.36268,92.311864 154.72829,91.245476 C 158.41214,88.368778 162.71239,83.828343 169.79242,85.609689 C 173.1514,86.454814 164.99954,87.870003 159.24774,94.117661 C 165.028,94.524143 175.79964,100.77332 172.21317,101.04615 C 167.91216,101.37047 144.46306,95.997549 130.05891,96.570244 C 125.3179,96.759326 125.706,97.819029 111.55192,98.251845 C 111.97136,106.09813 106.02012,105.22008 104.96151,101.29627 C 100.54957,101.76753 101.03004,96.544071 103.90418,95.001065 C 104.3828,86.72226 110.11029,89.024258 110.19445,93.517416 z"
       id="path3183"
       sodipodi:nodetypes="cscsscsscsscsscccc" />
    <path
       style="fill:#000000;fill-opacity:1;fill-rule:evenodd;stroke:none;stroke-width:1px;stroke-linecap:butt;stroke-linejoin:miter;stroke-opacity:1"
       d="M 110.00748,142.30845 C 113.64656,131.78625 121.10761,129.7516 124.79028,131.24349 C 126.81844,132.06511 117.84378,135.41003 116.54763,141.22918 C 116.54763,141.22918 122.95737,142.95481 124.49153,141.10856 C 127.3465,137.67282 131.09984,129.51321 140.26364,131.39811 C 142.77853,131.9154 130.79413,136.15124 131.75926,142.43606 C 131.75926,142.43606 136.08048,143.74629 137.77394,142.11583 C 142.59299,137.47605 146.75951,133.7558 153.38072,134.6207 C 156.92495,135.08367 147.76356,140.19687 144.2651,144.32077 C 150.37543,145.00883 156.60541,148.27306 154.2734,148.95976 C 148.35382,150.66714 142.25367,150.72443 136.51689,148.38042 C 134.2548,149.21921 130.41826,149.88356 125.84628,148.01996 C 120.66752,148.37172 114.60968,146.51287 111.84038,148.77463 C 111.94054,153.66208 106.91074,153.64531 105.38243,150.21451 C 100.26956,149.20506 101.50786,145.77957 103.00636,144.31092 C 104.11849,136.1253 108.10793,139.29843 110.00748,142.30845 z"
       id="path3185"
       sodipodi:nodetypes="cscsscsscccccccc" />
    <path
       style="fill:#000000;fill-opacity:1;fill-rule:evenodd;stroke:none;stroke-width:1px;stroke-linecap:butt;stroke-linejoin:miter;stroke-opacity:1"
       d="M 110.68099,43.134595 C 114.91161,30.950909 124.37174,25.764964 127.66927,28.349212 C 129.18797,29.539409 119.05946,34.965287 119.15545,41.397292 C 119.15545,41.397292 125.75325,41.249989 127.44283,39.544813 C 132.39696,34.544964 134.80089,25.495172 145.78195,27.122695 C 148.39089,27.50937 136.58613,31.703935 135.25288,39.386315 C 135.25288,39.386315 142.17366,40.808633 143.86712,39.178172 C 148.68617,34.538392 153.42041,28.270012 160.22231,29.242529 C 165.06369,29.934735 152.38959,33.442064 150.40167,41.064936 C 154.25088,42.300432 156.32076,41.860021 157.76455,40.732579 C 161.65932,37.691179 166.20577,32.890788 173.69116,34.774123 C 177.24245,35.667634 168.62387,37.163848 162.54276,43.769206 C 168.65396,44.198961 180.04231,50.80593 176.25051,51.094377 C 171.70325,51.437267 146.9116,45.756725 131.68276,46.362209 C 126.67031,46.562116 127.08063,47.682491 112.11618,48.140087 C 112.55964,56.435593 106.26767,55.507273 105.14845,51.358817 C 100.48392,51.857059 100.99189,46.334537 104.03058,44.703189 C 104.5366,35.950392 110.59201,38.384188 110.68099,43.134595 z"
       id="path3187"
       sodipodi:nodetypes="cscsscsscsscsscccc" />
    <g
       id="g2515"
       transform="matrix(0.2227002,0,0,0.2227002,-117.9095,-5.5442645)">
      <g
         style="fill-rule:evenodd"
         id="g2517"
         transform="matrix(3.248992,0,0,3.19535,-708.5078,-52.19496)">
        <g
           id="g2519"
           transform="translate(-57.86415,0)">
          <metadata
             id="metadata2521" />
        </g>
      </g>
    </g>
    <path
       style="fill:none;fill-opacity:1;fill-rule:evenodd;stroke:#000000;stroke-width:4;stroke-linecap:butt;stroke-linejoin:miter;stroke-miterlimit:4;stroke-dasharray:none;stroke-opacity:1"
       d="M 3.9187292,3.9804763 L 186.08127,3.9804763 L 182.08668,96.713023 C 178.7769,173.54815 134.69793,196.01952 95.000001,196.01952 C 55.302942,196.01952 10.022584,169.59768 7.3379288,96.754355 L 3.9187292,3.9804763 z"
       id="path2384"
       sodipodi:nodetypes="ccszsc" />
  </g>
</svg>

<svg xmlns="http://www.w3.org/2000/svg" width="190" height="200" version="1.0"><path d="M3.919 3.98H186.08l-3.994 92.733c-3.31 76.835-47.39 99.307-87.087 99.307S10.023 169.598 7.338 96.754L3.918 3.98z" style="fill:#ffda00;fill-opacity:1;fill-rule:evenodd;stroke:none;stroke-width:4;stroke-linecap:butt;stroke-linejoin:miter;stroke-miterlimit:4;stroke-dasharray:none;stroke-opacity:1"/><path style="fill:#fff;fill-rule:evenodd;stroke:none;stroke-width:1px;stroke-linecap:butt;stroke-linejoin:miter;stroke-opacity:1;fill-opacity:1" d="M3.77 4.163h91.71v191.09C50.826 197.508 10.698 157.51 7.254 93.53L3.771 4.163z"/><path style="fill:none;fill-rule:evenodd;stroke:#000;stroke-width:4;stroke-linecap:butt;stroke-linejoin:miter;stroke-miterlimit:4;stroke-dasharray:none;stroke-opacity:1" d="M95 4.431V194.51"/><path style="fill:#000;fill-rule:evenodd;stroke:none;stroke-width:1px;stroke-linecap:butt;stroke-linejoin:miter;stroke-opacity:.68235296000000001;fill-opacity:1" d="M8.943 95.318h42.765v88.013C15.366 162.938 9.26 115.21 8.943 95.318z"/><path style="opacity:1;fill:#000;fill-opacity:1;fill-rule:nonzero;stroke:none;stroke-width:3;stroke-linecap:round;stroke-linejoin:miter;stroke-miterlimit:4;stroke-dasharray:none;stroke-opacity:.68235294" d="M51.708 4.394h43.198v90.924H51.708z"/><path style="fill:#000;fill-opacity:1;fill-rule:evenodd;stroke:none;stroke-width:1px;stroke-linecap:butt;stroke-linejoin:miter;stroke-opacity:1" d="M110.194 93.517c4.002-11.523 12.95-16.429 16.069-13.984 1.436 1.125-8.144 6.258-8.053 12.341 0 0 6.24-.14 7.839-1.752 4.685-4.73 6.96-13.289 17.346-11.75 2.467.366-8.698 4.334-9.96 11.6 0 0 6.547 1.345 8.148-.197 4.559-4.388 9.036-10.317 15.47-9.397 4.58.654-7.409 3.972-9.289 11.182 3.64 1.168 5.599.752 6.964-.315 3.684-2.876 7.984-7.417 15.064-5.635 3.36.845-4.792 2.26-10.544 8.508 5.78.406 16.552 6.655 12.965 6.928-4.3.324-27.75-5.048-42.154-4.476-4.741.19-4.353 1.249-18.507 1.682.42 7.846-5.532 6.968-6.59 3.044-4.412.472-3.932-4.752-1.058-6.295.479-8.279 6.206-5.977 6.29-1.484zM110.007 142.308c3.64-10.522 11.1-12.556 14.783-11.065 2.028.822-6.946 4.167-8.242 9.986 0 0 6.41 1.726 7.944-.12 2.855-3.436 6.608-11.596 15.772-9.71 2.515.516-9.47 4.752-8.505 11.037 0 0 4.321 1.31 6.015-.32 4.819-4.64 8.986-8.36 15.607-7.495 3.544.463-5.617 5.576-9.116 9.7 6.11.688 12.34 3.952 10.008 4.639-5.92 1.707-12.02 1.764-17.756-.58-2.262.84-6.099 1.504-10.67-.36-5.18.352-11.237-1.507-14.007.755.1 4.887-4.93 4.87-6.458 1.44-5.112-1.01-3.874-4.435-2.376-5.904 1.112-8.186 5.102-5.013 7.001-2.003zM110.681 43.135c4.23-12.184 13.69-17.37 16.988-14.786 1.519 1.19-8.61 6.616-8.514 13.048 0 0 6.598-.147 8.288-1.852 4.954-5 7.358-14.05 18.339-12.422 2.609.386-9.196 4.58-10.53 12.263 0 0 6.922 1.423 8.615-.208 4.82-4.64 9.553-10.908 16.355-9.935 4.842.692-7.832 4.2-9.82 11.822 3.849 1.235 5.919.795 7.363-.332 3.894-3.042 8.44-7.842 15.926-5.959 3.551.894-5.067 2.39-11.148 8.995 6.111.43 17.5 7.037 13.708 7.325-4.548.343-29.34-5.337-44.568-4.732-5.013.2-4.602 1.32-19.567 1.778.444 8.296-5.848 7.367-6.968 3.219-4.664.498-4.156-5.024-1.117-6.656.506-8.753 6.561-6.319 6.65-1.568z"/><path style="fill:none;fill-opacity:1;fill-rule:evenodd;stroke:#000;stroke-width:4;stroke-linecap:butt;stroke-linejoin:miter;stroke-miterlimit:4;stroke-dasharray:none;stroke-opacity:1" d="M3.919 3.98H186.08l-3.994 92.733c-3.31 76.835-47.39 99.307-87.087 99.307S10.023 169.598 7.338 96.754L3.918 3.98z"/></svg>
